UI/POI/SVG/airport_solid_24px.svg

<svg width="24" height="24" viewBox="0 0 24 24" fill="none" xmlns="http://www.w3.org/2000/svg">
<path d="M8.18 9.99996L3 4.99996L5 2.99996L12.5 5.38996L8.18 9.99996ZM22 1.99996C21 0.999959 17 2.99996 16 3.99996C15 4.99996 7 14 7 14L3.41 14.59L2 16L7 17L8 22L9.41 20.59L10 17L14 14L19 21L21 19L19 10.06L21 7.99996C22 6.99996 23 2.99996 22 1.99996Z" fill="#0F1621"/>
</svg>

<svg xmlns="http://www.w3.org/2000/svg" width="24" height="24" viewBox="0 0 24 24"><rect width="24" height="24" style="fill:none"/><path d="M8.18,10,3,5,5,3l7.5,2.39ZM22,2c-1-1-5,1-6,2S7,14,7,14l-3.59.59L2,16l5,1,1,5,1.41-1.41L10,17l4-3,5,7,2-2-2-8.94L21,8C22,7,23,3,22,2Z"/></svg>
